data/styles/clear/style-clear/symbols/electronics-m.svg

<svg height="24" viewBox="0 0 24 24" width="24"><g fill="none" fill-rule="evenodd"><circle cx="12" cy="12" fill="#fff" opacity=".6" r="12"/><circle cx="12" cy="12" fill="#8c5f93" r="11"/><path d="m17.1333333 14.2288408v2.3989715c0 .7576602-.5012 1.3721877-1.12 1.3721877h-1.68v-5.1424898h1.68c.6188 0 1.12.6128133 1.12 1.3713306zm-9.14666663 3.7703021h1.68v-5.1424898h-1.68c-.6188 0-1.12.6145275-1.12 1.3721877v2.3989715c0 .7576602.5012 1.3713306 1.12 1.3713306zm4.01333333-11.9991429c-3.91066667 0-7 2.9217913-7 6.5146775v2.9132205h.93333333v-3.2569102h.0196c.1932-2.67580888 3.08466667-4.79965718 6.04706667-4.79965718s5.8529333 2.1238483 6.0470667 4.79965718h.0196v3.2569102h.9333333l-.0168-2.7658024.0168-.1482752c0-3.5920291-3.0884-6.5138204-7-6.5138204z" fill="#fff"/></g></svg>

<svg width="24" height="24" viewBox="0 0 24 24">
  <g fill="none" fill-rule="evenodd">
    <circle cx="12" cy="12" r="12" fill="#FFF" opacity=".6"/>
    <circle cx="12" cy="12" r="11" fill="#8C5F93"/>
    <path fill="#FFF" d="M17.1333333,14.2288408 L17.1333333,16.6278123 C17.1333333,17.3854725 16.6321333,18 16.0133333,18 L14.3333333,18 L14.3333333,12.8575102 L16.0133333,12.8575102 C16.6321333,12.8575102 17.1333333,13.4703235 17.1333333,14.2288408 L17.1333333,14.2288408 Z M7.98666667,17.9991429 L9.66666667,17.9991429 L9.66666667,12.8566531 L7.98666667,12.8566531 C7.36786667,12.8566531 6.86666667,13.4711806 6.86666667,14.2288408 L6.86666667,16.6278123 C6.86666667,17.3854725 7.36786667,17.9991429 7.98666667,17.9991429 L7.98666667,17.9991429 Z M12,6 C8.08933333,6 5,8.9217913 5,12.5146775 L5,15.427898 L5.93333333,15.427898 L5.93333333,12.1709878 L5.95293333,12.1709878 C6.14613333,9.49517892 9.0376,7.37133062 12,7.37133062 C14.9624,7.37133062 17.8529333,9.49517892 18.0470667,12.1709878 L18.0666667,12.1709878 L18.0666667,15.427898 L19,15.427898 L18.9832,12.6620956 L19,12.5138204 C19,8.9217913 15.9116,6 12,6 L12,6 Z"/>
  </g>
</svg>
